X:81
T:Polka Gan Ainm
R:Polka
S:Lucy Farr, Galway (fiddle).
D:Lucy Farr - 'Hearth and Home'
Q:240
M:2/4
L:1/8
Z:Bernie Stocks
K:C
|: AD FG | A2 AB | cA AG | EF G2 | AD FG | A2 AB | cA GA | ED D2 :|
|: Ad de | ^fd ed | cA AB | cd e2 | Ad de | ^fd ed | cA GE | ED D2 :|
<end>
<start>
